!!!!SEGMENT: pl-kk--kk-i-7--092_gorczycki-grzegorz-gerwazy--haec-dies-quam-fecit-dominus.krn
!!!cenid: 16xx:931
!!!COM: Gorczycki, Grzegorz Gerwazy
!!!COM-rismid: pe30009207
!!!CDT: ~1666-1734/04/30
!!!CNT: Polish
!!!OTL: Haec dies quam fecit Dominus
!!!PDT:
!!!AGN: Sacred
!!!SMS-siglum: PL-Kk
!!!SMS-shelfmark: Kk.I.7
!!!SMS-shelfwork: 092 W
!!!SMS-variant:
!!!SMS-altvar:
!!!NIFC-rismid: 300258169
!!!URL-scan: http://repozytorium.nifc.pl/skany/pl-kk-nut--i-7
!!!ONB-nifc: UWAGA: C (brak.), A (brak), T(0237, s.136-137), B(0325, s.136). Następny utwór: Magnificet te Domine
!!!AIN: 1 alto 1 bass 1 soprn 1 tenor
!!!key:
**kern	**text	**kern	**text	**kern	**kern
*part4	*part4	*part3	*part3	*part2	*part1
*staff4	*staff4	*staff3	*staff3	*staff2	*staff1
*Ibass	*	*Itenor	*	*Ialto	*Isoprn
*I"Bassus.	*	*I"Tenor.	*	*I"Altus.	*I"Cantus.
*I'B	*	*I'T	*	*I'A	*I'S
*clefF4	*	*clefC4	*	*clefG2	*clefG2
*k[]	*	*k[]	*	*k[]	*k[]
*f:	*	*f:	*	*f:	*f:
*M2/1	*	*M2/1	*	*M2/1	*M2/1
*met(c|)	*	*met(c|)	*	*met(c|)	*met(c|)
=1-	=1-	=1-	=1-	=1-	=1-
!LO:TX:t=Pro Tempore Paschali.	!	!LO:TX:t=Pro Tempore Paschali.	!	!	!
00r	.	00r	.	0ryy	0ryy
=2-	=2-	=2-	=2-	=2-	=2-
.	.	.	.	0ryy	0ryy
=3-	=3-	=3-	=3-	=3-	=3-
00r	.	00r	.	0ryy	0ryy
=4-	=4-	=4-	=4-	=4-	=4-
.	.	.	.	0ryy	0ryy
=5-	=5-	=5-	=5-	=5-	=5-
!	!	!LO:TX:t=P:problem=kreska pseudotaktowa	!	!	!
0r	.	1r	.	0ryy	0ryy
.	.	2ryy	.	.	.
.	.	2G/	Haec	.	.
=6-	=6-	=6-	=6-	=6-	=6-
!LO:TX:t=P:problem=kreska pseudotaktowa	!	!LO:TX:t=P:problem=kreska pseudotaktowa	!	!	!
1r	.	1A\	di-	0ryy	0ryy
2r	.	2G/	-es	.	.
*	*	*2\right	*	*	*
!LO:TX:t=P:problem=kreska pseudotaktowa	!	!	!	!	!
2C/	Haec	2c\	quam	.	.
=7-	=7-	=7-	=7-	=7-	=7-
1D\	di-	2c\	fe-	0ryy	0ryy
!	!	!LO:TX:t=P:problem=kreska pseudotaktowa	!	!	!
.	.	2B\	-cit	.	.
2C,/	-es	(2c\	Do-	.	.
*2\right	*	*	*	*	*
2G\	quam	2B\)	.	.	.
=8-	=8-	=8-	=8-	=8-	=8-
2G\	fe-	2.A/	.	0ryy	0ryy
!LO:TX:t=P:problem=kreska pseudotaktowa	!	!	!	!	!
2F#X\	-cit	.	.	.	.
!	!	!LO:TX:t=P:problem=kreska pseudotaktowa	!	!	!
.	.	4A/	-mi-	.	.
!	!	!LO:TX:t=P:problem=cezura na 2. linii	!	!	!
2G\	Do-	2G,/	-nus	.	.
4F#X\	.	2d\	quam	.	.
4E\	.	.	.	.	.
=9-	=9-	=9-	=9-	=9-	=9-
4D\	.	2d\	fe-	0ryy	0ryy
4E\	.	.	.	.	.
!	!	!LO:TX:t=P:problem=kreska pseudotaktowa	!	!	!
4F#X\	.	2d\	-cit	.	.
!LO:TX:t=P:problem=kreska pseudotaktowa	!	!	!	!	!
4D\	.	.	.	.	.
4E\	.	2.c\	Do-	.	.
4D\	.	.	.	.	.
4E\	.	.	.	.	.
4F#X\	.	4c\	-mi-	.	.
=10-	=10-	=10-	=10-	=10-	=10-
!	!	!LO:TX:t=P:problem=cezura na 3. linii	!	!	!
4G\	.	2B,\	-n(us)	0ryy	0ryy
4D\	.	.	.	.	.
1G\	.	2G/	haec	.	.
!	!	!LO:TX:t=P:problem=kreska pseudotaktowa	!	!	!
.	.	1A\	di-	.	.
!LO:TX:t=P:problem=kreska pseudotaktowa	!	!	!	!	!
2F#X\	-mi-	.	.	.	.
=11-	=11-	=11-	=11-	=11-	=11-
2G\	-nus	2G/	-es	0ryy	0ryy
!LO:TX:t=P:problem=kreska pseudotaktowa	!	!	!	!	!
2r	.	2c\	quam	.	.
00r	.	2c\	fe-	.	.
.	.	2B\	-cit	.	.
=12-	=12-	=12-	=12-	=12-	=12-
.	.	2c\	Do-	0ryy	0ryy
.	.	4B\	.	.	.
!	!	!LO:TX:t=P:problem=kreska pseudotaktowa	!	!	!
.	.	4A\	.	.	.
.	.	4G/	.	.	.
.	.	4A/	.	.	.
.	.	4B/	.	.	.
*	*	*custos:A	*	*	*
!	!	!LO:TX:t=P:problem=kreska pseudotaktowa	!	!	!
.	.	4G/	.	.	.
!	!	!LO:LB:g=original	!	!	!
=13-	=13-	=13-	=13-	=13-	=13-
.	.	4A\	.	0ryy	0ryy
.	.	4G\	.	.	.
.	.	4A\	.	.	.
!	!	!LO:TX:t=P:problem=kreska pseudotaktowa	!	!	!
.	.	4B\	.	.	.
!LO:TX:t=P:problem=kreska pseudotaktowa	!	!	!	!	!
0r	.	4c\	.	.	.
.	.	4G/	.	.	.
.	.	1c\	.	.	.
=14-	=14-	=14-	=14-	=14-	=14-
.	.	.	.	0ryy	0ryy
.	.	2B\	-mi-	.	.
!	!	!LO:TX:t=P:problem=cezura na 2. linii	!	!	!
2r	.	2c,\	-n(us)	.	.
2C/	Haec	2e\	quam	.	.
=15-	=15-	=15-	=15-	=15-	=15-
!LO:TX:t=P:problem=kreska pseudotaktowa	!	!	!	!	!
1D\	di-	2f\	fe-	0ryy	0ryy
!	!	!LO:TX:t=P:problem=kreska pseudotaktowa	!	!	!
.	.	2d\	-cit	.	.
2C/	-es	2e\	Do-	.	.
2G\	quam	2B\	.	.	.
=16-	=16-	=16-	=16-	=16-	=16-
2G\	fe-	2c\	.	0ryy	0ryy
!LO:TX:t=P:problem=kreska pseudotaktowa	!	!LO:TX:t=P:problem=kreska pseudotaktowa	!	!	!
2G\	-cit	2B\	.	.	.
2.Fn\	Do-	4A/	.	.	.
.	.	4G/	.	.	.
.	.	4A/	.	.	.
!	!	!LO:TX:t=P:problem=fragment zamazany	!	!	!
8G\L	.	4B/	.	.	.
*custos:E	*	*	*	*	*
!LO:TX:t=P:problem=kreska pseudotaktowa	!	!	!	!	!
8F\J	.	.	.	.	.
!LO:LB:g=original	!	!	!	!	!
=17-	=17-	=17-	=17-	=17-	=17-
2.E\	.	2.c\	.	0ryy	0ryy
!	!	!LO:TX:t=P:problem=kreska pseudotaktowa	!	!	!
8F\L	.	4c\	-mi-	.	.
8E\J	.	.	.	.	.
!	!	!LO:TX:t=P:problem=cezura na 5. linii	!	!	!
2.D/	.	2d,\	-n(us)	.	.
.	.	2d\	quam	.	.
4D/	-mi-	.	.	.	.
=18-	=18-	=18-	=18-	=18-	=18-
2C,/	-n(us)	2e\	fe-	0ryy	0ryy
!LO:TX:t=P:problem=kreska pseudotaktowa	!	!LO:TX:t=P:problem=kreska pseudotaktowa	!	!	!
2G\	quam	2d\	-cit	.	.
2c\	fe-	2e\	Do-	.	.
2B\	-cit	2d\	.	.	.
=19-	=19-	=19-	=19-	=19-	=19-
2.A\	Do-	2.c\	.	0ryy	0ryy
4G\	.	4B\	.	.	.
4F\	.	2A\	.	.	.
4E\	.	.	.	.	.
*	*	*custos:d	*	*	*
!	!	!LO:TX:t=P:problem=kreska pseudotaktowa	!	!	!
4F\	.	2c\	.	.	.
!LO:TX:t=P:problem=kreska pseudotaktowa	!	!	!	!	!
4D\	.	.	.	.	.
!	!	!LO:PB:g=original	!	!	!
=20-	=20-	=20-	=20-	=20-	=20-
2.G\	.	2.d\	.	0ryy	0ryy
!	!	!LO:TX:t=P:problem=kreska pseudotaktowa	!	!	!
4G\	-mi-	4d\	-mi-	.	.
!	!	!LO:TX:t=P:problem=cezura na 5. linii	!	!	!
2C/	-n(us)	2c,\	-n(us)	.	.
2r	.	2B\	quam	.	.
=21-	=21-	=21-	=21-	=21-	=21-
0r	.	2c\	fe-	0ryy	0ryy
!	!	!LO:TX:t=P:problem=kreska pseudotaktowa	!	!	!
.	.	2G/	-cit	.	.
.	.	2.d\	Do-	.	.
.	.	4d\	-mi-	.	.
=22-	=22-	=22-	=22-	=22-	=22-
!	!	!LO:TX:t=P:problem=cezura na 2. linii	!	!	!
2r	.	2G,/	-n(us)	0ryy	0ryy
!LO:TX:t=P:problem=kreska pseudotaktowa	!	!	!	!	!
2E\	quam	2c\	quam	.	.
2F\	fe-	2A\	fe-	.	.
2C/	-cit	2c\	-cit	.	.
=23-	=23-	=23-	=23-	=23-	=23-
1.G\	Do-	2B\	Do-	0ryy	0ryy
.	.	1c\	.	.	.
2GG/	-mi-	2B\	-mi-	.	.
=24-	=24-	=24-	=24-	=24-	=24-
!LO:TX:t=P:problem=kreska pseudotaktowa	!	!	!	!	!
0C/;	-n(us).	0c\	-n(us).	0ryy	0ryy
=25||-	=25||-	=25||-	=25||-	=25||-	=25||-
*M3/4	*	*M3/4	*	*M3/4	*M3/4
!LO:TX:t=P:problem=w części 3/4 rytm regularny, więc kreski taktowe nie zostaną skomentowane	!	!LO:TX:t=P:problem=w części 3/4 rytm regularny, więc kreski taktowe nie zostaną skomentowane	!	!	!
4r	.	4r	.	2.ryy	2.ryy
4G\	E-	4d\	E-	.	.
4D/	-xul-	4d\	-xul-	.	.
=26	=26	=26	=26	=26	=26
2G\	-te-	2d\	-te-	2.ryy	2.ryy
4G\	-m(us)	4d\	-m(us)	.	.
=27	=27	=27	=27	=27	=27
4r	.	4r	.	2.ryy	2.ryy
*	*ij	*	*ij	*	*
4c\	E-	(4e\	E-	.	.
4G\	-xul-	4d\)	xul-	.	.
=28	=28	=28	=28	=28	=28
2c\	-te-	2e\	-te-	2.ryy	2.ryy
4C/	-m(us)	4e\	-m(us)	.	.
*	*Xij	*	*Xij	*	*
=29	=29	=29	=29	=29	=29
*custos:G	*	*	*	*	*
!LO:N:vis=0	!	!	!	!	!
1.r	.	4r	.	2.ryy	2.ryy
.	.	4B\	et	.	.
.	.	4B\	lae-	.	.
=30	=30	=30	=30	=30	=30
.	.	4c\	-te-	2.ryy	2.ryy
.	.	8G/	-mur	.	.
.	.	8G/	in	.	.
.	.	4d\	e-	.	.
!LO:LB:g=original	!	!	!	!	!
=31	=31	=31	=31	=31	=31
!	!	!LO:TX:t=P:problem=cezura na 2. linii	!	!	!
4r	.	4G,/	-a	2.ryy	2.ryy
4G\	e-	4d\	e-	.	.
4D/	-xul-	4d\	-xul-	.	.
!	!	!LO:LB:g=original	!	!	!
=32	=32	=32	=32	=32	=32
2G\	-te-	2d\	-te-	2.ryy	2.ryy
4G\	-m(us)	4d\	-m(us)	.	.
=33	=33	=33	=33	=33	=33
4r	.	4r	.	2.ryy	2.ryy
4F#X\	et	4d\	et	.	.
4F#\	lae-	4d\	lae-	.	.
=34	=34	=34	=34	=34	=34
4G\	-te-	4d\	-te-	2.ryy	2.ryy
8D/	-mur	8d\	-mur	.	.
8D/	in	8d\	in	.	.
4A\	e-	4c#X\	e-	.	.
=35	=35	=35	=35	=35	=35
!LO:TX:t=P:problem=cezura na 3. linii	!	!LO:TX:t=P:problem=cezura na 2. linii	!	!	!
2D,/	-a	2d,\	-a	2.ryy	2.ryy
4D/	lae-	4d\	lae-	.	.
=36	=36	=36	=36	=36	=36
4G\	-te-	8d\L	-te-	2.ryy	2.ryy
.	.	8c\	.	.	.
!LO:TX:t=P:problem=cezura na 2. linii	!	!	!	!	!
4G,\	-mur	8d\	.	.	.
.	.	8e\	.	.	.
*	*ij	*	*	*	*
4F#X\	lae-	8d\	.	.	.
.	.	8c\J	.	.	.
=37	=37	=37	=37	=37	=37
4G\	-te-	8B\L	.	2.ryy	2.ryy
.	.	8A\	.	.	.
!LO:TX:t=P:problem=cezura na 3. linii	!	!	!	!	!
4G,\	-mur	8B\	.	.	.
*	*Xij	*	*	*	*
.	.	8c\	.	.	.
4G\	lae-	8B\	.	.	.
.	.	8A\J	.	.	.
=38	=38	=38	=38	=38	=38
4GG/	-te-	4G/	.	2.ryy	2.ryy
!	!	!LO:TX:t=P:problem=cezura na 2. linii	!	!	!
4GG/	-mur	4G,/	-mur	.	.
*	*	*	*ij	*	*
4G\	lae-	4G/	lae-	.	.
=39	=39	=39	=39	=39	=39
8G\L	-te-	4B\	-te-	2.ryy	2.ryy
8F\	.	.	.	.	.
!	!	!LO:TX:t=P:problem=cezura na 2. linii	!	!	!
8G\	.	4G,/	-mur	.	.
*	*	*	*Xij	*	*
8A\	.	.	.	.	.
!	!	!LO:TX:t=P:problem=kreska pseudotaktowa	!	!	!
8G\	.	4B\	lae-	.	.
8F\J	.	.	.	.	.
=40	=40	=40	=40	=40	=40
8E\L	.	4c\	-te-	2.ryy	2.ryy
8D\	.	.	.	.	.
!	!	!LO:TX:t=P:problem=cezura na 2. linii	!	!	!
8E\	.	4c,\	-mur	.	.
8F\	.	.	.	.	.
8E\	.	4g\	lae-	.	.
8D\J	.	.	.	.	.
=41	=41	=41	=41	=41	=41
4C/	.	8g\L	-te-	2.ryy	2.ryy
.	.	8f\	.	.	.
!LO:TX:t=P:problem=cezura na 1. linii	!	!	!	!	!
4C,/	-mur	8g\	.	.	.
.	.	8a\	.	.	.
*	*ij	*	*	*	*
4C/	lae-	8g\	.	.	.
.	.	8f\J	.	.	.
=42	=42	=42	=42	=42	=42
4C/	-te-	8e\L	.	2.ryy	2.ryy
.	.	8d\	.	.	.
!LO:TX:t=P:problem=cezura na 2. linii	!	!	!	!	!
4C,/	-mur	8e\	.	.	.
*	*Xij	*	*	*	*
.	.	8f\	.	.	.
4c\	lae-	8e\	.	.	.
.	.	8d\J	.	.	.
=43	=43	=43	=43	=43	=43
4c\	-te-	4c\	.	2.ryy	2.ryy
!LO:TX:t=P:problem=cezura na 3. linii	!	!LO:TX:t=P:problem=cezura na 2. linii	!	!	!
4c,\	-mur	4c,\	-mur	.	.
*custos:c	*	*	*	*	*
*	*	*	*ij	*	*
4c\	lae-	4c\	lae-	.	.
!LO:LB:g=original	!	!	!	!	!
=44	=44	=44	=44	=44	=44
8c\L	-te-	4e\	-te-	2.ryy	2.ryy
8B-X\	.	.	.	.	.
8c\	.	4e\	-mur	.	.
*	*	*	*Xij	*	*
8d\	.	.	.	.	.
8c\	.	4e\	lae-	.	.
8B-\J	.	.	.	.	.
=45	=45	=45	=45	=45	=45
8A\L	.	4f\	-te-	2.ryy	2.ryy
8G\	.	.	.	.	.
8A\	.	4f\	-mur	.	.
8B-X\	.	.	.	.	.
8A\	.	4c\	lae-	.	.
8G\J	.	.	.	.	.
!	!	!LO:LB:g=original	!	!	!
=46	=46	=46	=46	=46	=46
4F\	.	8c\L	-te-	2.ryy	2.ryy
.	.	8B-X\	.	.	.
!LO:TX:t=P:problem=cezura na 2. linii	!	!	!	!	!
4F,\	-mur	8c\	.	.	.
.	.	8d\	.	.	.
*	*ij	*	*	*	*
4F\	lae-	8c\	.	.	.
.	.	8B-\J	.	.	.
=47	=47	=47	=47	=47	=47
4F\	-te-	8A/L	.	2.ryy	2.ryy
.	.	8G/	.	.	.
!LO:TX:t=P:problem=cezura na 1. linii	!	!	!	!	!
4FF,/	-mur	8A/	.	.	.
*	*Xij	*	*	*	*
.	.	8B/	.	.	.
4F\	lae-	8A/	.	.	.
.	.	8G/J	.	.	.
=48	=48	=48	=48	=48	=48
4F\	-te-	4F/	.	2.ryy	2.ryy
!LO:TX:t=P:problem=cezura na 2. linii	!	!LO:TX:t=P:problem=cezura na 2. linii	!	!	!
4F,\	-mur	4F,/	-mur	.	.
*	*ij	*	*ij	*	*
4E\	lae-	4c\	lae-	.	.
=49	=49	=49	=49	=49	=49
4F\	-te-	4c\	-te-	2.ryy	2.ryy
!LO:TX:t=P:problem=cezura na 2. linii	!	!	!	!	!
8C,/	-mur	8c\	-mur	.	.
*	*Xij	*	*Xij	*	*
8C/	in	8c\	in	.	.
4G\	e-	4Bn\	e-	.	.
=50	=50	=50	=50	=50	=50
!LO:TX:t=P:problem=cezura na 2. linii	!	!LO:TX:t=P:problem=cezura na 3. linii	!	!	!
2C,/	-a	2c,\	-a	2.ryy	2.ryy
4E\	lae-	4c\	lae-	.	.
=51	=51	=51	=51	=51	=51
4F\	-te-	4f\	-te-	2.ryy	2.ryy
!LO:TX:t=P:problem=cezura na 2. linii	!	!LO:TX:t=P:problem=cezura na 4. linii	!	!	!
4F,\	-mur	4f,\	-mur	.	.
*	*ij	*	*ij	*	*
4E\	lae-	4c\	lae-	.	.
=52	=52	=52	=52	=52	=52
4F\	-te-	4f\	-te-	2.ryy	2.ryy
!LO:TX:t=P:problem=cezura na 2. linii	!	!	!	!	!
8C,/	-mur	8e\	-mur	.	.
*	*Xij	*	*Xij	*	*
8C/	in	8e\	in	.	.
!	!	!LO:TX:t=P:problem=brak kreski taktowej	!	!	!
4G\	e-	4d\	e-	.	.
=53	=53	=53	=53	=53	=53
*M2/1	*	*M2/1	*	*M2/1	*M2/1
*met(c)	*	*met(c)	*	*met(c)	*met(c)
!LO:TX:t=P:problem=cezura na 2. linii	!	!LO:TX:t=P:problem=cezura na 3. linii	!	!	!
2C,/	-a	2c,\	-a	0ryy	0ryy
2C/	in	2c\	in	.	.
1F\	e-	1c\	e-	.	.
=54	=54	=54	=54	=54	=54
0C/;	-a.	0c\;	-a.	0ryy	0ryy
==	==	==	==	==	==
*-	*-	*-	*-	*-	*-
!!!system-decoration: [(s1,s2,s3,s4)]
!!!EED: Leszek Kubiak
!!!EEV: 2021-03-22
!!!ENC: Kamil Watkowski
!!!END: 2021-03-04
